assets/logos/zara.svg

<svg width="64" height="27" viewBox="0 0 64 27" fill="none" xmlns="http://www.w3.org/2000/svg">
<g clip-path="url(#clip0_1_4400)">
<path d="M60.5359 25.852L51.0822 0.0227119L51.0758 0.00561523H50.8892L48.9425 5.31343L45.3983 14.9765L45.39 14.9688C44.1617 13.8932 42.4287 13.2209 40.2462 12.9705L39.5806 12.9023L40.2409 12.8183C43.8401 12.1765 46.2595 9.92072 46.2595 7.20299C46.2595 3.47617 42.7272 0.874885 37.6675 0.874885H27.1399V1.06358H30.1989V20.3207L22.7697 0.0226486L22.763 0.00561523H22.5765L20.6296 5.31343L13.121 25.7855L13.0748 25.7908C12.9465 25.8065 12.8196 25.819 12.694 25.8284C12.5051 25.8431 12.3173 25.8519 12.129 25.8519H4.5421L18.9637 1.06352L19.0709 0.877228H1.4327V8.54539H1.61985C1.65303 4.81034 3.84499 1.06352 8.68795 1.06352H14.5306L0 26.0376H19.5755V18.691H19.3884C19.3629 21.9464 17.5032 25.0385 13.4593 25.7367L13.3307 25.7585L16.4105 17.358H25.0379L28.1467 25.852H25.0801V26.0377H37.1166V25.852H34.0368V13.0393H37.5905C41.2068 13.0393 43.281 14.6426 43.281 17.4367V19.7094C43.281 19.9599 43.2981 20.326 43.3171 20.6322V20.6434L41.407 25.8507H38.9118V26.0365H44.0769V25.8507H41.6085L43.3479 21.1089C43.3515 21.1547 43.3532 21.1824 43.3532 21.1824L43.4012 21.6096L43.4474 21.8923C43.7376 23.6408 44.4116 24.9262 45.4499 25.7126L45.5991 25.8202C46.388 26.3644 47.3682 26.64 48.5142 26.64C50.0322 26.64 51.0444 26.2645 51.8801 25.3806L51.7705 25.2783C51.0005 25.9835 50.3544 26.2692 49.5448 26.2692C48.1654 26.2692 47.4435 24.6088 47.4435 22.9714V19.787C47.4508 18.9969 47.3261 18.211 47.0745 17.4614L47.0401 17.3626V17.3591H53.3506L56.4593 25.8531H53.3927V26.0388H63.8088V25.8531L60.5359 25.852ZM16.4791 17.1722L20.7293 5.58501L24.9699 17.1722H16.4791ZM34.0387 12.8529V1.06352H36.7512C40.3747 1.06352 42.2877 3.20111 42.2877 7.24301C42.2877 11.5417 41.1896 12.8529 37.5905 12.8529H34.0387ZM46.9666 17.1722L46.9482 17.1264C46.6678 16.4486 46.2595 15.8302 45.7453 15.3044L45.5677 15.128L45.5487 15.1104L49.0395 5.58501L53.2801 17.1722H46.9666Z" fill="white"/>
</g>
<defs>
<clipPath id="clip0_1_4400">
<rect width="63.8088" height="26.6454" fill="white"/>
</clipPath>
</defs>
</svg>

<svg xmlns="http://www.w3.org/2000/svg" width="64" height="27" fill="none" viewBox="0 0 64 27"><g clip-path="url(#clip0_1_4400)"><path fill="#fff" d="M60.536 25.852 51.082.022l-.006-.016h-.187l-1.947 5.307-3.544 9.664-.008-.008c-1.228-1.076-2.961-1.748-5.144-1.998l-.665-.069.66-.084c3.6-.641 6.019-2.897 6.019-5.615 0-3.727-3.533-6.328-8.593-6.328H27.14v.189h3.059V20.32L22.769.023l-.006-.017h-.187L20.63 5.313l-7.51 20.473-.046.005a8 8 0 0 1-.946.06H4.542L18.964 1.065l.107-.187H1.433v7.668h.187c.033-3.735 2.225-7.481 7.068-7.481h5.843L0 26.038h19.576V18.69h-.188c-.025 3.255-1.885 6.348-5.929 7.046l-.128.022 3.08-8.401h8.627l3.109 8.494H25.08v.186h12.037v-.186h-3.08V13.039h3.553c3.617 0 5.691 1.604 5.691 4.398v2.272c0 .25.017.617.036.923v.011l-1.91 5.208h-2.495v.186h5.165v-.186h-2.468l1.739-4.742.005.073.048.428.046.282c.29 1.749.965 3.034 2.003 3.82l.15.108c.788.544 1.768.82 2.914.82 1.518 0 2.53-.375 3.366-1.26l-.11-.102c-.77.706-1.416.991-2.225.991-1.38 0-2.102-1.66-2.102-3.298v-3.184a7.1 7.1 0 0 0-.368-2.326l-.035-.098v-.004h6.31l3.11 8.494h-3.067v.186h10.416v-.186zm-44.057-8.68 4.25-11.587 4.24 11.587zm17.56-4.32V1.065h2.712c3.624 0 5.537 2.137 5.537 6.179 0 4.299-1.098 5.61-4.697 5.61zm12.928 4.32-.019-.046a5.8 5.8 0 0 0-1.203-1.822l-.177-.176-.02-.018 3.491-9.525 4.241 11.587z"/></g><defs><clipPath id="clip0_1_4400"><path fill="#fff" d="M0 0h63.809v26.645H0z"/></clipPath></defs></svg>
